X:5838
T:Gan Ainm
R:reel
S:
H:
N:
D:Milltown Session
Z:Adrian Scahill
M:4/4
L:1/8
K:G
cded cAAc|Bcdc BGAB|c2ed cBAG|ED (3EFG A3B|\
cded cAAc|Bcdc BGAB|c3A B2AG|EDEG A4:||\
cdef g2eg|aged cAAB|cdef gafg|ed (3efg a3B|\
cdef g2eg|aged cAAB|c2ed cBAG|ED (3EFG A4:||


